img/filesystem.svg

<?xml version="1.0" encoding="UTF-8" standalone="no"?>
<svg
   xmlns:ooo="http://xml.openoffice.org/svg/export"
   xmlns:dc="http://purl.org/dc/elements/1.1/"
   xmlns:cc="http://creativecommons.org/ns#"
   xmlns:rdf="http://www.w3.org/1999/02/22-rdf-syntax-ns#"
   xmlns:svg="http://www.w3.org/2000/svg"
   xmlns="http://www.w3.org/2000/svg"
   xmlns:sodipodi="http://sodipodi.sourceforge.net/DTD/sodipodi-0.dtd"
   xmlns:inkscape="http://www.inkscape.org/namespaces/inkscape"
   version="1.2"
   width="331.29922"
   height="203.74016"
   viewBox="0 0 9350.0003 5750"
   preserveAspectRatio="xMidYMid"
   clip-path="url(#presentation_clip_path)"
   xml:space="preserve"
   id="svg2"
   inkscape:version="0.48.2 r9819"
   sodipodi:docname="filesystem.svg"
   style="fill-rule:evenodd;stroke-width:28.22200012;stroke-linejoin:round"><metadata
   id="metadata197"><rdf:RDF><cc:Work
       rdf:about=""><dc:format>image/svg+xml</dc:format><dc:type
         rdf:resource="http://purl.org/dc/dcmitype/StillImage" /></cc:Work></rdf:RDF></metadata><sodipodi:namedview
   pagecolor="#ffffff"
   bordercolor="#666666"
   borderopacity="1"
   objecttolerance="10"
   gridtolerance="10"
   guidetolerance="10"
   inkscape:pageopacity="0"
   inkscape:pageshadow="2"
   inkscape:window-width="640"
   inkscape:window-height="480"
   id="namedview195"
   showgrid="false"
   fit-margin-top="0"
   fit-margin-left="0"
   fit-margin-right="0"
   fit-margin-bottom="0"
   inkscape:zoom="0.23838384"
   inkscape:cx="337.32283"
   inkscape:cy="-246.08268"
   inkscape:window-x="0"
   inkscape:window-y="0"
   inkscape:window-maximized="0"
   inkscape:current-layer="svg2" />
 <defs
   class="ClipPathGroup"
   id="defs4">
  <clipPath
   id="presentation_clip_path"
   clipPathUnits="userSpaceOnUse">
   <rect
   x="0"
   y="0"
   width="21590"
   height="27940"
   id="rect7" />
  </clipPath>
 </defs>
 <defs
   class="TextShapeIndex"
   id="defs9">
  <g
   ooo:slide="id1"
   ooo:id-list="id3 id4 id5 id6 id7 id8 id9 id10 id11 id12 id13 id14 id15 id16 id17"
   id="g11" />
 </defs>
 <defs
   class="EmbeddedBulletChars"
   id="defs13">
  <g
   id="bullet-char-template(57356)"
   transform="scale(4.8828125e-4,-4.8828125e-4)">
   <path
   d="M 580,1141 1163,571 580,0 -4,571 580,1141 z"
   id="path16"
   inkscape:connector-curvature="0" />
  </g>
  <g
   id="bullet-char-template(57354)"
   transform="scale(4.8828125e-4,-4.8828125e-4)">
   <path
   d="m 8,1128 1129,0 L 1137,0 8,0 8,1128 z"
   id="path19"
   inkscape:connector-curvature="0" />
  </g>
  <g
   id="bullet-char-template(10146)"
   transform="scale(4.8828125e-4,-4.8828125e-4)">
   <path
   d="M 174,0 602,739 174,1481 1456,739 174,0 z m 1184,739 -1049,607 350,-607 699,0 z"
   id="path22"
   inkscape:connector-curvature="0" />
  </g>
  <g
   id="bullet-char-template(10132)"
   transform="scale(4.8828125e-4,-4.8828125e-4)">
   <path
   d="M 2015,739 1276,0 717,0 l 543,543 -1086,0 0,393 1086,0 -543,545 557,0 741,-742 z"
   id="path25"
   inkscape:connector-curvature="0" />
  </g>
  <g
   id="bullet-char-template(10007)"
   transform="scale(4.8828125e-4,-4.8828125e-4)">
   <path
   d="m 0,-2 c -7,16 -16,29 -25,39 l 381,530 c -94,256 -141,385 -141,387 0,25 13,38 40,38 9,0 21,-2 34,-5 21,4 42,12 65,25 l 27,-13 111,-251 280,301 64,-25 24,25 c 21,-10 41,-24 62,-43 C 886,937 835,863 770,784 769,783 710,716 594,584 L 774,223 c 0,-27 -21,-55 -63,-84 l 16,-20 C 717,90 699,76 672,76 641,76 570,178 457,381 L 164,-76 c -22,-34 -53,-51 -92,-51 -42,0 -63,17 -64,51 -7,9 -10,24 -10,44 0,9 1,19 2,30 z"
   id="path28"
   inkscape:connector-curvature="0" />
  </g>
  <g
   id="bullet-char-template(10004)"
   transform="scale(4.8828125e-4,-4.8828125e-4)">
   <path
   d="M 285,-33 C 182,-33 111,30 74,156 52,228 41,333 41,471 c 0,78 14,145 41,201 34,71 87,106 158,106 53,0 88,-31 106,-94 l 23,-176 c 8,-64 28,-97 59,-98 l 735,706 c 11,11 33,17 66,17 42,0 63,-15 63,-46 l 0,-122 c 0,-36 -10,-64 -30,-84 L 442,47 C 390,-6 338,-33 285,-33 z"
   id="path31"
   inkscape:connector-curvature="0" />
  </g>
  <g
   id="bullet-char-template(9679)"
   transform="scale(4.8828125e-4,-4.8828125e-4)">
   <path
   d="M 813,0 C 632,0 489,54 383,161 276,268 223,411 223,592 c 0,181 53,324 160,431 106,107 249,161 430,161 179,0 323,-54 432,-161 108,-107 162,-251 162,-431 0,-180 -54,-324 -162,-431 C 1136,54 992,0 813,0 z"
   id="path34"
   inkscape:connector-curvature="0" />
  </g>
  <g
   id="bullet-char-template(8226)"
   transform="scale(4.8828125e-4,-4.8828125e-4)">
   <path
   d="m 346,457 c -73,0 -137,26 -191,78 -54,51 -81,114 -81,188 0,73 27,136 81,188 54,52 118,78 191,78 73,0 134,-26 185,-79 51,-51 77,-114 77,-187 0,-75 -25,-137 -76,-188 -50,-52 -112,-78 -186,-78 z"
   id="path37"
   inkscape:connector-curvature="0" />
  </g>
  <g
   id="bullet-char-template(8211)"
   transform="scale(4.8828125e-4,-4.8828125e-4)">
   <path
   d="m -4,459 1139,0 0,147 -1139,0 0,-147 z"
   id="path40"
   inkscape:connector-curvature="0" />
  </g>
 </defs>
 <defs
   class="TextEmbeddedBitmaps"
   id="defs42" />
 <g
   id="g44"
   transform="translate(-1275,-1275)">
  <g
   id="id2"
   class="Master_Slide">
   <g
   id="bg-id2"
   class="Background" />
   <g
   id="bo-id2"
   class="BackgroundObjects" />
  </g>
 </g>
 <g
   class="SlideGroup"
   id="g49"
   transform="translate(-1275,-1275)">
  <g
   id="g51">
   <g
   id="id1"
   class="Slide"
   clip-path="url(#presentation_clip_path)">
    <g
   class="Page"
   id="g54">
     <g
   class="Group"
   id="g56">
      <g
   class="com.sun.star.drawing.CustomShape"
   id="g58">
       <g
   id="id3">
        <path
   d="m 5950,2600 -1150,0 0,-1100 2300,0 0,1100 -1150,0 z"
   id="path61"
   inkscape:connector-curvature="0"
   style="fill:none;stroke:#000000;stroke-width:50" />
        <text
   class="TextShape"
   id="text63"><tspan
     class="TextParagraph"
     font-size="388px"
     font-weight="400"
     id="tspan65"
     style="font-size:388px;font-weight:400;font-family:'Arial, sans-serif'"><tspan
       class="TextPosition"
       x="5897"
       y="2185"
       id="tspan67"><tspan
         id="tspan69"
         style="fill:#000000;stroke:none">/</tspan></tspan></tspan></text>

       </g>
      </g>
      <g
   class="com.sun.star.drawing.CustomShape"
   id="g71">
       <g
   id="id4">
        <path
   d="m 4800,1500 1001,0 -251,-200 -500,0 -250,200 z"
   id="path74"
   inkscape:connector-curvature="0"
   style="fill:none;stroke:#000000;stroke-width:50" />
       </g>
      </g>
     </g>
     <g
   class="Group"
   id="g76">
      <g
   class="com.sun.star.drawing.CustomShape"
   id="g78">
       <g
   id="id5">
        <path
   d="m 2450,5000 -1150,0 0,-1100 2300,0 0,1100 -1150,0 z"
   id="path81"
   inkscape:connector-curvature="0"
   style="fill:none;stroke:#000000;stroke-width:50" />
        <text
   class="TextShape"
   id="text83"><tspan
     class="TextParagraph"
     font-size="388px"
     font-weight="400"
     id="tspan85"
     style="font-size:388px;font-weight:400;font-family:'Arial, sans-serif'"><tspan
       class="TextPosition"
       x="2192"
       y="4585"
       id="tspan87"><tspan
         id="tspan89"
         style="fill:#000000;stroke:none">bin</tspan></tspan></tspan></text>

       </g>
      </g>
      <g
   class="com.sun.star.drawing.CustomShape"
   id="g91">
       <g
   id="id6">
        <path
   d="m 1300,3900 1001,0 -251,-200 -500,0 -250,200 z"
   id="path94"
   inkscape:connector-curvature="0"
   style="fill:none;stroke:#000000;stroke-width:50" />
       </g>
      </g>
     </g>
     <g
   class="Group"
   id="g96">
      <g
   class="com.sun.star.drawing.CustomShape"
   id="g98">
       <g
   id="id7">
        <path
   d="m 9450,5100 -1150,0 0,-1100 2300,0 0,1100 -1150,0 z"
   id="path101"
   inkscape:connector-curvature="0"
   style="fill:none;stroke:#000000;stroke-width:50" />
        <text
   class="TextShape"
   id="text103"><tspan
     class="TextParagraph"
     font-size="388px"
     font-weight="400"
     id="tspan105"
     style="font-size:388px;font-weight:400;font-family:'Arial, sans-serif'"><tspan
       class="TextPosition"
       x="9126"
       y="4685"
       id="tspan107"><tspan
         id="tspan109"
         style="fill:#000000;stroke:none">tmp</tspan></tspan></tspan></text>

       </g>
      </g>
      <g
   class="com.sun.star.drawing.CustomShape"
   id="g111">
       <g
   id="id8">
        <path
   d="m 8300,4000 1001,0 -251,-200 -500,0 -250,200 z"
   id="path114"
   inkscape:connector-curvature="0"
   style="fill:none;stroke:#000000;stroke-width:50" />
       </g>
      </g>
     </g>
     <g
   class="com.sun.star.drawing.LineShape"
   id="g116">
      <g
   id="id9">
       <path
   d="M 5700,2700 3891,3522"
   id="path119"
   inkscape:connector-curvature="0"
   style="fill:none;stroke:#000000" />
       <path
   d="m 3500,3700 472,-50 -124,-273 -348,323 z"
   id="path121"
   inkscape:connector-curvature="0"
   style="fill:#000000;stroke:none" />
      </g>
     </g>
     <g
   class="com.sun.star.drawing.LineShape"
   id="g123">
      <g
   id="id10">
       <path
   d="m 6300,2700 1809,822"
   id="path126"
   inkscape:connector-curvature="0"
   style="fill:none;stroke:#000000" />
       <path
   d="m 8500,3700 -348,-323 -124,273 472,50 z"
   id="path128"
   inkscape:connector-curvature="0"
   style="fill:#000000;stroke:none" />
      </g>
     </g>
     <g
   class="Group"
   id="g130">
      <g
   class="com.sun.star.drawing.CustomShape"
   id="g132">
       <g
   id="id11">
        <path
   d="m 4350,7000 -1150,0 0,-1100 2300,0 0,1100 -1150,0 z"
   id="path135"
   inkscape:connector-curvature="0"
   style="fill:none;stroke:#000000;stroke-width:50" />
        <text
   class="TextShape"
   id="text137"><tspan
     class="TextParagraph"
     font-size="388px"
     font-weight="400"
     id="tspan139"
     style="font-size:388px;font-weight:400;font-family:'Arial, sans-serif'"><tspan
       class="TextPosition"
       x="3973"
       y="6585"
       id="tspan141"><tspan
         id="tspan143"
         style="fill:#000000;stroke:none">data</tspan></tspan></tspan></text>

       </g>
      </g>
      <g
   class="com.sun.star.drawing.CustomShape"
   id="g145">
       <g
   id="id12">
        <path
   d="m 3200,5900 1001,0 -251,-200 -500,0 -250,200 z"
   id="path148"
   inkscape:connector-curvature="0"
   style="fill:none;stroke:#000000;stroke-width:50" />
       </g>
      </g>
     </g>
     <g
   class="Group"
   id="g150">
      <g
   class="com.sun.star.drawing.CustomShape"
   id="g152">
       <g
   id="id13">
        <path
   d="m 7450,7000 -1150,0 0,-1100 2300,0 0,1100 -1150,0 z"
   id="path155"
   inkscape:connector-curvature="0"
   style="fill:none;stroke:#000000;stroke-width:50" />
        <text
   class="TextShape"
   id="text157"><tspan
     class="TextParagraph"
     font-size="388px"
     font-weight="400"
     id="tspan159"
     style="font-size:388px;font-weight:400;font-family:'Arial, sans-serif'"><tspan
       class="TextPosition"
       x="6976"
       y="6585"
       id="tspan161"><tspan
         id="tspan163"
         style="fill:#000000;stroke:none">users</tspan></tspan></tspan></text>

       </g>
      </g>
      <g
   class="com.sun.star.drawing.CustomShape"
   id="g165">
       <g
   id="id14">
        <path
   d="m 6300,5900 1001,0 -251,-200 -500,0 -250,200 z"
   id="path168"
   inkscape:connector-curvature="0"
   style="fill:none;stroke:#000000;stroke-width:50" />
       </g>
      </g>
     </g>
     <g
   class="com.sun.star.drawing.LineShape"
   id="g170">
      <g
   id="id15">
       <path
   d="M 5900,2700 4864,5203"
   id="path173"
   inkscape:connector-curvature="0"
   style="fill:none;stroke:#000000" />
       <path
   d="m 4700,5600 311,-358 -278,-115 -33,473 z"
   id="path175"
   inkscape:connector-curvature="0"
   style="fill:#000000;stroke:none" />
      </g>
     </g>
     <g
   class="com.sun.star.drawing.LineShape"
   id="g177">
      <g
   id="id16">
       <path
   d="M 6100,2700 7136,5203"
   id="path180"
   inkscape:connector-curvature="0"
   style="fill:none;stroke:#000000" />
       <path
   d="m 7300,5600 -33,-473 -278,115 311,358 z"
   id="path182"
   inkscape:connector-curvature="0"
   style="fill:#000000;stroke:none" />
      </g>
     </g>
     <g
   class="com.sun.star.drawing.TextShape"
   id="g184">
      <g
   id="id17">
       <text
   class="TextShape"
   id="text187"><tspan
     class="TextParagraph"
     font-size="388px"
     font-weight="400"
     id="tspan189"
     style="font-size:388px;font-weight:400;font-family:'Arial, sans-serif'"><tspan
       class="TextPosition"
       x="8150"
       y="2176"
       id="tspan191"><tspan
         id="tspan193"
         style="fill:#000000;stroke:none">root</tspan></tspan></tspan></text>

      </g>
     </g>
    </g>
   </g>
  </g>
 </g>
</svg>

<?xml version="1.0" encoding="UTF-8"?>
<!DOCTYPE svg PUBLIC "-//W3C//DTD SVG 1.1//EN" "http://www.w3.org/Graphics/SVG/1.1/DTD/svg11.dtd">
<svg version="1.2" width="215.9mm" height="279.4mm" viewBox="0 0 21590 27940" preserveAspectRatio="xMidYMid" fill-rule="evenodd" clip-path="url(#presentation_clip_path)" stroke-width="28.222" stroke-linejoin="round" xmlns="http://www.w3.org/2000/svg" xmlns:ooo="http://xml.openoffice.org/svg/export" xmlns:xlink="http://www.w3.org/1999/xlink" xml:space="preserve">
 <defs class="ClipPathGroup">
  <clipPath id="presentation_clip_path" clipPathUnits="userSpaceOnUse">
   <rect x="0" y="0" width="21590" height="27940"/>
  </clipPath>
 </defs>
 <defs class="TextShapeIndex">
  <g ooo:slide="id1" ooo:id-list="id3 id4 id5 id6 id7 id8 id9 id10 id11 id12 id13 id14 id15 id16 id17"/>
 </defs>
 <defs class="EmbeddedBulletChars">
  <g id="bullet-char-template(57356)" transform="scale(0.00048828125,-0.00048828125)">
   <path d="M 580,1141 L 1163,571 580,0 -4,571 580,1141 Z"/>
  </g>
  <g id="bullet-char-template(57354)" transform="scale(0.00048828125,-0.00048828125)">
   <path d="M 8,1128 L 1137,1128 1137,0 8,0 8,1128 Z"/>
  </g>
  <g id="bullet-char-template(10146)" transform="scale(0.00048828125,-0.00048828125)">
   <path d="M 174,0 L 602,739 174,1481 1456,739 174,0 Z M 1358,739 L 309,1346 659,739 1358,739 Z"/>
  </g>
  <g id="bullet-char-template(10132)" transform="scale(0.00048828125,-0.00048828125)">
   <path d="M 2015,739 L 1276,0 717,0 1260,543 174,543 174,936 1260,936 717,1481 1274,1481 2015,739 Z"/>
  </g>
  <g id="bullet-char-template(10007)" transform="scale(0.00048828125,-0.00048828125)">
   <path d="M 0,-2 C -7,14 -16,27 -25,37 L 356,567 C 262,823 215,952 215,954 215,979 228,992 255,992 264,992 276,990 289,987 310,991 331,999 354,1012 L 381,999 492,748 772,1049 836,1024 860,1049 C 881,1039 901,1025 922,1006 886,937 835,863 770,784 769,783 710,716 594,584 L 774,223 C 774,196 753,168 711,139 L 727,119 C 717,90 699,76 672,76 641,76 570,178 457,381 L 164,-76 C 142,-110 111,-127 72,-127 30,-127 9,-110 8,-76 1,-67 -2,-52 -2,-32 -2,-23 -1,-13 0,-2 Z"/>
  </g>
  <g id="bullet-char-template(10004)" transform="scale(0.00048828125,-0.00048828125)">
   <path d="M 285,-33 C 182,-33 111,30 74,156 52,228 41,333 41,471 41,549 55,616 82,672 116,743 169,778 240,778 293,778 328,747 346,684 L 369,508 C 377,444 397,411 428,410 L 1163,1116 C 1174,1127 1196,1133 1229,1133 1271,1133 1292,1118 1292,1087 L 1292,965 C 1292,929 1282,901 1262,881 L 442,47 C 390,-6 338,-33 285,-33 Z"/>
  </g>
  <g id="bullet-char-template(9679)" transform="scale(0.00048828125,-0.00048828125)">
   <path d="M 813,0 C 632,0 489,54 383,161 276,268 223,411 223,592 223,773 276,916 383,1023 489,1130 632,1184 813,1184 992,1184 1136,1130 1245,1023 1353,916 1407,772 1407,592 1407,412 1353,268 1245,161 1136,54 992,0 813,0 Z"/>
  </g>
  <g id="bullet-char-template(8226)" transform="scale(0.00048828125,-0.00048828125)">
   <path d="M 346,457 C 273,457 209,483 155,535 101,586 74,649 74,723 74,796 101,859 155,911 209,963 273,989 346,989 419,989 480,963 531,910 582,859 608,796 608,723 608,648 583,586 532,535 482,483 420,457 346,457 Z"/>
  </g>
  <g id="bullet-char-template(8211)" transform="scale(0.00048828125,-0.00048828125)">
   <path d="M -4,459 L 1135,459 1135,606 -4,606 -4,459 Z"/>
  </g>
 </defs>
 <defs class="TextEmbeddedBitmaps"/>
 <g>
  <g id="id2" class="Master_Slide">
   <g id="bg-id2" class="Background"/>
   <g id="bo-id2" class="BackgroundObjects"/>
  </g>
 </g>
 <g class="SlideGroup">
  <g>
   <g id="id1" class="Slide" clip-path="url(#presentation_clip_path)">
    <g class="Page">
     <g class="Group">
      <g class="com.sun.star.drawing.CustomShape">
       <g id="id3">
        <path fill="none" stroke="rgb(0,0,0)" stroke-width="50" d="M 5950,2600 L 4800,2600 4800,1500 7100,1500 7100,2600 5950,2600 Z"/>
        <text class="TextShape"><tspan class="TextParagraph" font-family="Arial, sans-serif" font-size="388px" font-weight="400"><tspan class="TextPosition" x="5897" y="2185"><tspan fill="rgb(0,0,0)" stroke="none">/</tspan></tspan></tspan></text>
       </g>
      </g>
      <g class="com.sun.star.drawing.CustomShape">
       <g id="id4">
        <path fill="none" stroke="rgb(0,0,0)" stroke-width="50" d="M 4800,1500 L 5801,1500 5550,1300 5050,1300 4800,1500 Z"/>
       </g>
      </g>
     </g>
     <g class="Group">
      <g class="com.sun.star.drawing.CustomShape">
       <g id="id5">
        <path fill="none" stroke="rgb(0,0,0)" stroke-width="50" d="M 2450,5000 L 1300,5000 1300,3900 3600,3900 3600,5000 2450,5000 Z"/>
        <text class="TextShape"><tspan class="TextParagraph" font-family="Arial, sans-serif" font-size="388px" font-weight="400"><tspan class="TextPosition" x="2192" y="4585"><tspan fill="rgb(0,0,0)" stroke="none">bin</tspan></tspan></tspan></text>
       </g>
      </g>
      <g class="com.sun.star.drawing.CustomShape">
       <g id="id6">
        <path fill="none" stroke="rgb(0,0,0)" stroke-width="50" d="M 1300,3900 L 2301,3900 2050,3700 1550,3700 1300,3900 Z"/>
       </g>
      </g>
     </g>
     <g class="Group">
      <g class="com.sun.star.drawing.CustomShape">
       <g id="id7">
        <path fill="none" stroke="rgb(0,0,0)" stroke-width="50" d="M 9450,5100 L 8300,5100 8300,4000 10600,4000 10600,5100 9450,5100 Z"/>
        <text class="TextShape"><tspan class="TextParagraph" font-family="Arial, sans-serif" font-size="388px" font-weight="400"><tspan class="TextPosition" x="9126" y="4685"><tspan fill="rgb(0,0,0)" stroke="none">tmp</tspan></tspan></tspan></text>
       </g>
      </g>
      <g class="com.sun.star.drawing.CustomShape">
       <g id="id8">
        <path fill="none" stroke="rgb(0,0,0)" stroke-width="50" d="M 8300,4000 L 9301,4000 9050,3800 8550,3800 8300,4000 Z"/>
       </g>
      </g>
     </g>
     <g class="com.sun.star.drawing.LineShape">
      <g id="id9">
       <path fill="none" stroke="rgb(0,0,0)" d="M 5700,2700 L 3891,3522"/>
       <path fill="rgb(0,0,0)" stroke="none" d="M 3500,3700 L 3972,3650 3848,3377 3500,3700 Z"/>
      </g>
     </g>
     <g class="com.sun.star.drawing.LineShape">
      <g id="id10">
       <path fill="none" stroke="rgb(0,0,0)" d="M 6300,2700 L 8109,3522"/>
       <path fill="rgb(0,0,0)" stroke="none" d="M 8500,3700 L 8152,3377 8028,3650 8500,3700 Z"/>
      </g>
     </g>
     <g class="Group">
      <g class="com.sun.star.drawing.CustomShape">
       <g id="id11">
        <path fill="none" stroke="rgb(0,0,0)" stroke-width="50" d="M 4350,7000 L 3200,7000 3200,5900 5500,5900 5500,7000 4350,7000 Z"/>
        <text class="TextShape"><tspan class="TextParagraph" font-family="Arial, sans-serif" font-size="388px" font-weight="400"><tspan class="TextPosition" x="3973" y="6585"><tspan fill="rgb(0,0,0)" stroke="none">data</tspan></tspan></tspan></text>
       </g>
      </g>
      <g class="com.sun.star.drawing.CustomShape">
       <g id="id12">
        <path fill="none" stroke="rgb(0,0,0)" stroke-width="50" d="M 3200,5900 L 4201,5900 3950,5700 3450,5700 3200,5900 Z"/>
       </g>
      </g>
     </g>
     <g class="Group">
      <g class="com.sun.star.drawing.CustomShape">
       <g id="id13">
        <path fill="none" stroke="rgb(0,0,0)" stroke-width="50" d="M 7450,7000 L 6300,7000 6300,5900 8600,5900 8600,7000 7450,7000 Z"/>
        <text class="TextShape"><tspan class="TextParagraph" font-family="Arial, sans-serif" font-size="388px" font-weight="400"><tspan class="TextPosition" x="6976" y="6585"><tspan fill="rgb(0,0,0)" stroke="none">users</tspan></tspan></tspan></text>
       </g>
      </g>
      <g class="com.sun.star.drawing.CustomShape">
       <g id="id14">
        <path fill="none" stroke="rgb(0,0,0)" stroke-width="50" d="M 6300,5900 L 7301,5900 7050,5700 6550,5700 6300,5900 Z"/>
       </g>
      </g>
     </g>
     <g class="com.sun.star.drawing.LineShape">
      <g id="id15">
       <path fill="none" stroke="rgb(0,0,0)" d="M 5900,2700 L 4864,5203"/>
       <path fill="rgb(0,0,0)" stroke="none" d="M 4700,5600 L 5011,5242 4733,5127 4700,5600 Z"/>
      </g>
     </g>
     <g class="com.sun.star.drawing.LineShape">
      <g id="id16">
       <path fill="none" stroke="rgb(0,0,0)" d="M 6100,2700 L 7136,5203"/>
       <path fill="rgb(0,0,0)" stroke="none" d="M 7300,5600 L 7267,5127 6989,5242 7300,5600 Z"/>
      </g>
     </g>
     <g class="com.sun.star.drawing.TextShape">
      <g id="id17">
       <text class="TextShape"><tspan class="TextParagraph" font-family="Arial, sans-serif" font-size="388px" font-weight="400"><tspan class="TextPosition" x="8150" y="2176"><tspan fill="rgb(0,0,0)" stroke="none">root</tspan></tspan></tspan></text>
      </g>
     </g>
    </g>
   </g>
  </g>
 </g>
</svg>
